img/svg/social/tw-icon-white.svg

<svg width="38" height="30" viewBox="0 0 38 30" fill="none" xmlns="http://www.w3.org/2000/svg">
<path d="M32.9913 4.70398C34.56 3.76614 35.7338 2.2894 36.2935 0.549484C34.8194 1.42417 33.2066 2.0403 31.5248 2.37123C30.3905 1.17135 28.893 0.377841 27.2632 0.113037C25.6334 -0.151768 23.9618 0.126829 22.506 0.905881C21.0502 1.68493 19.891 2.92119 19.2071 4.42409C18.5233 5.92699 18.3527 7.61309 18.7218 9.22248C15.7361 9.07259 12.8152 8.29652 10.1489 6.94465C7.48256 5.59279 5.13029 3.69535 3.24478 1.37548C2.28589 3.02941 1.99247 4.98631 2.42411 6.84874C2.85575 8.71117 3.98009 10.3395 5.56878 11.403C4.37652 11.3647 3.2107 11.0418 2.16853 10.4615V10.556C2.16886 12.2902 2.76901 13.9709 3.86719 15.3131C4.96537 16.6553 6.49397 17.5763 8.19378 17.92C7.08789 18.2209 5.92789 18.2652 4.80228 18.0495C5.28305 19.541 6.21751 20.8453 7.47524 21.7802C8.73296 22.7151 10.2512 23.234 11.818 23.2645C9.15773 25.3525 5.87236 26.4848 2.49053 26.4792C1.89028 26.4792 1.29178 26.4442 0.696777 26.376C4.131 28.5827 8.12794 29.754 12.21 29.75C15.0216 29.7693 17.809 29.2297 20.4102 28.1626C23.0115 27.0956 25.3748 25.5222 27.3628 23.534C29.3508 21.5458 30.924 19.1824 31.9909 16.581C33.0577 13.9797 33.5971 11.1923 33.5775 8.38073C33.5775 8.05523 33.5705 7.73148 33.5548 7.40948C35.0256 6.34657 36.295 5.02977 37.3033 3.52098C35.933 4.12832 34.4796 4.52707 32.9913 4.70398Z" fill="white"/>
</svg>

<svg xmlns="http://www.w3.org/2000/svg" fill="none" viewBox="0 0 38 30"><path fill="#fff" d="M32.991 4.704A7.525 7.525 0 0 0 36.294.549a15.032 15.032 0 0 1-4.77 1.822 7.525 7.525 0 0 0-12.802 6.851A21.322 21.322 0 0 1 3.245 1.375a7.525 7.525 0 0 0 2.324 10.028 7.483 7.483 0 0 1-3.4-.942v.095a7.515 7.515 0 0 0 6.025 7.364 7.524 7.524 0 0 1-3.392.13 7.525 7.525 0 0 0 7.016 5.215 15.067 15.067 0 0 1-9.327 3.214c-.6 0-1.2-.035-1.794-.103A21.26 21.26 0 0 0 12.21 29.75 21.222 21.222 0 0 0 33.577 8.38c0-.325-.006-.649-.022-.97a15.257 15.257 0 0 0 3.748-3.889 15.016 15.016 0 0 1-4.312 1.183z"/></svg>
